X:828
T:Xiraldilla (CT 250)
R:Xiraldilla
C:Tradicional
S:Msica Tradicional Asturiana, (C) Tello & Tito. Asturies, 2001.
S:http://pagina.de/MusTradAst <telloytito@asturies.org>
N:Xiraldilla, transcrita en Trubia, ayuntamiento de Uviu.
A:Asturies
O:Trubia (Uviu)
Z:Cancioneru de Torner 250
M:3/8
L:1/8
Q:3/8=88
K:G
F
|G B2|cAF|G B2|c A2|dd/d/d/d/|dBd|BdB|d2 B|c B2|AGF|
G B2|cAF|G A2|c A2|dd/d/d/d/|dBd|BdB|d2 B|c B2|A G2|
dd/d/d/d/|dBd|dBd|d2 B|c B2|A G2-|G z2||
W:Quiero casarme,
W:no encuentro novia.
W:Pues yo ya la he encontrado,
W:ea, ea, ai!
W:muy jaquetena,
W:que viste y calza muy a la moda.
W:Gasta zapato blanco,
W:ea, ea, ai!
W:tela de lona;
W:trai la media de seda,
W:ea, ea, ai!
W:como seora.
W:
